icon-themes/sifr_svg/cmd/sc_gluehorzalignright.svg

<svg viewBox="0 0 16 16" xmlns="http://www.w3.org/2000/svg"><g fill="#555753"><path d="m2 6h4v-4h4v4h4v4h-4v4h-4v-4h-4z" opacity=".35"/><path d="m8 6c1.108 0 2 .892 2 2v2h2.541016c.713616-1.2360223 2.03175-2 3.458984-2v8c-1.427234 0-2.745368-.763978-3.458984-2h-4.541016c-1.108 0-2-.892-2-2v-4c0-1.108.892-2 2-2z"/></g></svg>

<svg xmlns="http://www.w3.org/2000/svg" viewBox="0 0 16 16">
  <path
     style="opacity:0.35;fill:#555753"
     d="M 2,6 H 6 V 2 h 4 v 4 h 4 v 4 h -4 v 4 H 6 V 10 H 2 Z"
     />
  <path
     style="fill:#555753"
     d="m 8,6 c 1.108,0 2,0.892 2,2 v 2 h 2.541016 C 13.254632,8.7639777 14.572766,8 16,8 v 8 C 14.572766,16 13.254632,15.236022 12.541016,14 H 8 C 6.892,14 6,13.108 6,12 V 8 C 6,6.892 6.892,6 8,6 Z"
     />
</svg>
